artwork/resources/intui/icons/shell/filetree/library-module_dark.svg

<svg width="16" height="16" viewBox="0 0 16 16" fill="none" xmlns="http://www.w3.org/2000/svg">
<g clip-path="url(#clip0_3_849)">
<path fill-rule="evenodd" clip-rule="evenodd" d="M2.75 2C1.7835 2 1 2.83574 1 3.86667V12.1333C1 13.1643 1.7835 14 2.75 14H7V10C7 8.89543 7.89543 8 9 8H9.26756C9.61337 7.4022 10.2597 7 11 7H12C13.1046 7 14 7.89543 14 9C14.3643 9 14.7058 9.09739 15 9.26756V6C15 4.89543 14.1046 4 13 4L8.5 4L6.73559 2.28327C6.5489 2.10163 6.29871 2 6.03823 2H2.75Z" fill="#43454A"/>
<path fill-rule="evenodd" clip-rule="evenodd" d="M13 5H8.09379L6.03823 3H2.75C2.3956 3 2 3.32624 2 3.86667V12.1333C2 12.6738 2.3956 13 2.75 13H7V14H2.75C1.7835 14 1 13.1643 1 12.1333V3.86667C1 2.83574 1.7835 2 2.75 2H6.03823C6.29871 2 6.5489 2.10163 6.73559 2.28327L8.5 4L13 4C14.1046 4 15 4.89543 15 6V9.26756C14.7058 9.09739 14.3643 9 14 9V6C14 5.44772 13.5523 5 13 5Z" fill="#CED0D6"/>
<path d="M9 9.5H10.5V14.5H9C8.72386 14.5 8.5 14.2761 8.5 14V10C8.5 9.72386 8.72386 9.5 9 9.5Z" fill="#25324D" stroke="#548AF7"/>
<path d="M12.5 10.5H14C14.2761 10.5 14.5 10.7239 14.5 11V14C14.5 14.2761 14.2761 14.5 14 14.5H12.5V10.5Z" fill="#25324D" stroke="#548AF7"/>
<path d="M11 8.5H12C12.2761 8.5 12.5 8.72386 12.5 9V14.5H10.5V9C10.5 8.72386 10.7239 8.5 11 8.5Z" fill="#25324D" stroke="#548AF7"/>
</g>
<defs>
<clipPath id="clip0_3_849">
<rect width="16" height="16" fill="white"/>
</clipPath>
</defs>
</svg>

<svg width="16" height="16" viewBox="0 0 16 16" fill="none" xmlns="http://www.w3.org/2000/svg"><g clip-path="url(#clip0_3_849)"><path fill-rule="evenodd" clip-rule="evenodd" d="M2.75 2C1.784 2 1 2.836 1 3.867v8.266C1 13.164 1.784 14 2.75 14H7v-4a2 2 0 0 1 2-2h.268A2 2 0 0 1 11 7h1a2 2 0 0 1 2 2c.364 0 .706.097 1 .268V6a2 2 0 0 0-2-2H8.5L6.736 2.283A1 1 0 0 0 6.038 2H2.75z" fill="#43454A"/><path fill-rule="evenodd" clip-rule="evenodd" d="M13 5H8.094L6.038 3H2.75c-.354 0-.75.326-.75.867v8.266c0 .54.396.867.75.867H7v1H2.75C1.784 14 1 13.164 1 12.133V3.867C1 2.836 1.784 2 2.75 2h3.288a1 1 0 0 1 .698.283L8.5 4H13a2 2 0 0 1 2 2v3.268A1.99 1.99 0 0 0 14 9V6a1 1 0 0 0-1-1z" fill="#CED0D6"/><path d="M8.5 10a.5.5 0 0 1 .5-.5h1.5v5H9a.5.5 0 0 1-.5-.5v-4zM12.5 10.5H14a.5.5 0 0 1 .5.5v3a.5.5 0 0 1-.5.5h-1.5v-4zM10.5 9a.5.5 0 0 1 .5-.5h1a.5.5 0 0 1 .5.5v5.5h-2V9z" fill="#25324D" stroke="#548AF7"/></g><defs><clipPath id="clip0_3_849"><path fill="#fff" d="M0 0h16v16H0z"/></clipPath></defs></svg>
